X:435
T:Mount Stewart House #1 
C:Joe Buchanan's Scottish Tome - Page 053.2
I:053 2
R:March
Z:Carl Allison
L:1/16
M:2/4
K:D
(ag) | f2d2 d2A2 | B2d2 A2d2 | B2e2 gfed | c2e2 e2(ag) |
f2d2 d2A2 | BcdB A2(dB) | Bcdf gfed | A2d2 d2 :|
(fg) | a2>f2 d2a2 | f2d2 a2>f2 | egfa gfed | c2e2 e2(fg) |
a2>f2 d2a2 | f2d2 a2>f2 | e2ef gfed | c2e2 e2(fg) |
(fg) | a2>f2 d2a2 | f2d2 a2>f2 | egfa gfed | c2e2 e2(ag) |
f2d2 d2A2 | BcdB A2dB | Bcdf gfed | A2d2 d2 |]

